X:37
T: Eine gruselige Geschichte, S. 70
N: R0061
O: Luxemburg
S: D'Fraen um Kanddaaf an der aler Zeit, Luxemburg 1929]
R: ??]
M: 4/4
L: 1/16
K: Bb
F4 | B4B2B2B4B4 | B4A2G2F4
F2F2 | G2G2G2G2A2A2A2A2 | B4d4B4
F4 | B4B2B2B4B4 | B4A2G2F4
F2F2 | G2G2G2G2A2A2A2A2 | B4d4B4
F2F2 | B3BB3BB3BD2E2 | F3FF3FF4
F2F2 | G2G2G2G2A2A2A2A2 | B4d4B4
F2F2 | B3BB3BB3BD2E2 | F3FF3FF4
F2F2 | G2G2G2G2A2A2A2A2 | B4d4B4z4
d4d2f2e4F4 | c4c2e2d4F4
B4B2d2c4c4 | A2A2G2A2B4z4
d4d2f2e4F4 | c4c2e2d4F4
B4B2d2c4c4 | A2A2G2A2B4

